X: 1
T: Morten Larsen
O: Sj\aelland
R: waltz
Z: 1997 by John Chambers <jc:trillian.mit.edu>
M: 3/4
L: 1/4
K: G
|: D | "G"D2G | B2d | d e/d/c/B/ | "D7"A2F | DFA | ccA | BBA | "G"G2 :|
|: d | "G"g g/g/g/g/ | g g/g/g/g/ | ggg  | g2d | "D"f/d/f/d/g/d/ | f/d/f/d/g/d/ | "A7"f/d/f/d/e/^c/ | "D7"d2 :|
c |: "G"B2A | GAB | "Am"c2B | BAA | "D7"A2G | GFA | d>Bc/A/ |1 "G"BGD :|2 "G"G2 ||
D || "C"E3 | "D7"F3 | "G"GBB | B2D | GBd | "D7"A2D | "G"GG/F/G | "D7"AA/G/A |
| "G"BB/A/B | "C"c2A | "G"BB/A/B | "D7"c2A | "G"BGG | "(D)"GB/A/G/F/ | "G"GGG | G2 |]

%%sep 1 1 500

